X:96
L:1/8
M:2/2
K:G
 D | G2 BG dGBG | G2 BG FAAB | G2 BG dGBG | cABG DG G2 :: f | gfed edcB | gfed efga | gfed edcB | 
 cABG DG G2 :|

